X:6
T:Killaghbeg House
T:Ah, Surely
S:Trad, arr. Paddy O'Brien
R:reel
E:9
I:speed 350
M:C|
K:G
B|AFAc BG~G2|BGBd gedB|AFAc BGBd|egdc BG~G2|\
AFAc BG~G2|BGBd gfga|bgag egfa|gedc BGG:|\
a|bg~g2 agef|gfge dega|bg~g2 aged|eaag ea~a2|\
bg ~g2 agef|gfge dega|bgag egfa|gedc BG G2:|**

\vfill\eject

